X: 1
T: Gavotte des Montagnes #1   [Am]
S: 2017 DEFFA Folk Band collection
Z: 2017 John Chambers <jc:trillian.mit.edu>
M: 4/4
L: 1/8
%Q: 1/4=138-160
K: Am
% - - - - - - - - - -
"A"|:\
"Am"Ac"G"Bc "G"de"Am"A2 | "Am"cB"G"AG "Am"A2A2 :|
"B"|:\
"Am"Ac"G"Bc "G"de"Am"e2 |  "C"g2e2    "Am"eded |
| \
"Am"c2"G"Bc "G"de"Am"A2 | "Am"cB"G"AG "Am"A2A2 :|
% - - - - - - - - - -
